web/static/dist/img/logo.454a3835.svg

<?xml version="1.0" encoding="UTF-8"?>
<svg width="79px" height="31px" viewBox="0 0 79 31" version="1.1" xmlns="http://www.w3.org/2000/svg" xmlns:xlink="http://www.w3.org/1999/xlink">
    <!-- Generator: Sketch 56.3 (81716) - https://sketch.com -->
    <title>H2O</title>
    <desc>Created with Sketch.</desc>
    <g id="H2O" stroke="none" stroke-width="1" fill="none" fill-rule="evenodd">
        <g id="Group-3">
            <g id="Group-2" transform="translate(0.104202, 0.545455)">
                <polygon id="Path" fill="#000000" points="7.63483978 17.798574 16.8287192 17.798574 16.8287192 28.6363636 24.1339335 28.6363636 24.1339335 1.36363636 16.8287192 1.36363636 16.8287192 12.4153298 7.63483978 12.4153298 7.63483978 1.36363636 0.400895905 1.36363636 0.400895905 28.6363636 7.63483978 28.6363636"></polygon>
                <polygon id="Path-Copy" fill="#000000" points="24.1339333 12.4153298 24.1339335 1.36363636 16.8287192 1.36363636 16.8287192 12.4153298"></polygon>
                <path d="M35.0578276,10.4593805 C35.0578276,6.61576302 36.9411382,5.6736999 38.5231191,5.6736999 C40.2934311,5.6736999 41.4234175,6.80417565 41.4234175,8.91439703 C41.4234175,10.7608407 40.444096,12.3811893 37.2801341,15.3581088 L27.2609215,24.7410574 L27.2609215,28.6977225 L49.0319925,28.6977225 L49.0319925,22.9699788 L38.0711246,22.9699788 L38.0711246,22.8946137 L42.741735,18.6741709 C46.809686,14.9812835 49.0696587,12.6826495 49.0696587,8.46220673 C49.0696587,3.90262124 46.0940279,0.360463917 38.7867826,0.360463917 C31.4795373,0.360463917 27.8635809,4.24176396 27.7505823,10.4593805 L35.0578276,10.4593805 Z" id="H2O" fill="#121212"></path>
                <path d="M51.8024859,14.8500005 C51.8024859,6.26322332 56.6941994,0.681818182 64.8004673,0.681818182 C73.326025,0.681818182 77.6936263,6.08433213 77.6936263,14.8500005 C77.6936263,23.4725558 73.0115577,29.0181828 64.8004673,29.0181828 C56.030324,29.0181828 51.8024859,23.5798906 51.8024859,14.8500005 Z M64.7655265,23.8661165 C68.2945484,23.8661165 70.0066481,20.8965227 70.0066481,14.8500005 C70.0066481,8.80347823 67.8403178,5.76232799 64.7655265,5.76232799 C61.2365047,5.76232799 59.524405,8.80347823 59.524405,14.8500005 C59.524405,20.9323009 61.0618006,23.8661165 64.7655265,23.8661165 Z" id="Combined-Shape" fill="#000000"></path>
            </g>
        </g>
    </g>
</svg>

<?xml version="1.0" encoding="UTF-8" standalone="no"?>
<svg
   xmlns:dc="http://purl.org/dc/elements/1.1/"
   xmlns:cc="http://creativecommons.org/ns#"
   xmlns:rdf="http://www.w3.org/1999/02/22-rdf-syntax-ns#"
   xmlns:svg="http://www.w3.org/2000/svg"
   xmlns="http://www.w3.org/2000/svg"
   xmlns:sodipodi="http://sodipodi.sourceforge.net/DTD/sodipodi-0.dtd"
   xmlns:inkscape="http://www.inkscape.org/namespaces/inkscape"
   width="79px"
   height="31px"
   viewBox="0 0 79 31"
   version="1.1"
   id="svg885"
   sodipodi:docname="logo.svg"
   inkscape:version="0.92.2 5c3e80d, 2017-08-06">
  <metadata
     id="metadata891">
    <rdf:RDF>
      <cc:Work
         rdf:about="">
        <dc:format>image/svg+xml</dc:format>
        <dc:type
           rdf:resource="http://purl.org/dc/dcmitype/StillImage" />
      </cc:Work>
    </rdf:RDF>
  </metadata>
  <defs
     id="defs889" />
  <sodipodi:namedview
     pagecolor="#ffffff"
     bordercolor="#666666"
     borderopacity="1"
     objecttolerance="10"
     gridtolerance="10"
     guidetolerance="10"
     inkscape:pageopacity="0"
     inkscape:pageshadow="2"
     inkscape:window-width="1418"
     inkscape:window-height="859"
     id="namedview887"
     showgrid="false"
     inkscape:zoom="5.9240506"
     inkscape:cx="56.568073"
     inkscape:cy="30.884152"
     inkscape:window-x="0"
     inkscape:window-y="0"
     inkscape:window-maximized="0"
     inkscape:current-layer="g883" />
  <!-- Generator: Sketch 56.3 (81716) - https://sketch.com -->
  <title
     id="title873">H2O</title>
  <desc
     id="desc875">Created with Sketch.</desc>
  <g
     id="g883"
     transform="matrix(0.57000592,0,0,0.57000592,0.21718911,0.38953977)"
     style="fill:none;fill-rule:evenodd;stroke:none;stroke-width:1">
    <g
       id="Group-3"
       transform="matrix(1.1839096,0,0,1.1839096,-1.2774654,-0.16660813)">
      <g
         id="Group-2"
         transform="translate(0.104202,0.545455)">
        <polygon
           id="Path"
           points="24.133934,1.3636364 16.828719,1.3636364 16.828719,12.41533 7.6348398,12.41533 7.6348398,1.3636364 0.4008959,1.3636364 0.4008959,28.636364 7.6348398,28.636364 7.6348398,17.798574 16.828719,17.798574 16.828719,28.636364 24.133934,28.636364 "
           style="fill:#000000" />
        <polygon
           id="Path-Copy"
           points="24.133933,12.41533 24.133934,1.3636364 16.828719,1.3636364 16.828719,12.41533 "
           style="fill:#000000" />
        <path
           d="m 35.057828,10.459381 c 0,-3.843618 1.88331,-4.7856811 3.465291,-4.7856811 1.770312,0 2.900298,1.1304758 2.900298,3.2406971 0,1.846444 -0.979321,3.466792 -4.143283,6.443712 l -10.019213,9.382948 v 3.956665 H 49.031992 V 22.969979 H 38.071125 v -0.07536 l 4.67061,-4.220443 c 4.067951,-3.692887 6.327924,-5.991521 6.327924,-10.2119643 0,-4.5595855 -2.975631,-8.10174278 -10.282876,-8.10174278 -7.307246,0 -10.923202,3.88130008 -11.036201,10.09891708 z"
           id="H2O"
           inkscape:connector-curvature="0"
           style="fill:#121212" />
        <path
           d="m 51.802486,14.850001 c 0,-8.5867777 4.891713,-14.16818282 12.997981,-14.16818282 8.525558,0 12.893159,5.40251392 12.893159,14.16818282 0,8.622555 -4.682068,14.168182 -12.893159,14.168182 -8.770143,0 -12.997981,-5.438292 -12.997981,-14.168182 z m 12.963041,9.016115 c 3.529021,0 5.241121,-2.969593 5.241121,-9.016115 0,-6.0465228 -2.16633,-9.087673 -5.241121,-9.087673 -3.529022,0 -5.241122,3.0411502 -5.241122,9.087673 0,6.0823 1.537396,9.016115 5.241122,9.016115 z"
           id="Combined-Shape"
           inkscape:connector-curvature="0"
           style="fill:#000000" />
      </g>
    </g>
    <text
       xml:space="preserve"
       style="font-style:normal;font-weight:normal;font-size:22.10203934px;line-height:125%;font-family:sans-serif;letter-spacing:0px;word-spacing:0px;fill:#000000;fill-opacity:1;stroke:none;stroke-width:0.8840816px;stroke-linecap:butt;stroke-linejoin:miter;stroke-opacity:1"
       x="-1.2406597"
       y="53.54615"
       id="text895"><tspan
         sodipodi:role="line"
         id="tspan893"
         x="-1.2406597"
         y="53.54615"
         style="font-style:normal;font-variant:normal;font-weight:bold;font-stretch:normal;font-family:Helvetica;-inkscape-font-specification:'Helvetica Bold';stroke-width:0.8840816px">ANNOTATOR</tspan></text>
  </g>
</svg>
